!!!COM:	Bach, Johann Sebastian
!!!OMV:	Auf meinen lieben Gott
!!!OTL:	Auf meinen lieben Gott
**kern	**fb	**kern	**kern	**kern	**kern
*part5	*part5	*part4	*part3	*part2	*part1
*staff5	*	*staff4	*staff3	*staff2	*staff1
*I"Contrabass	*	*I"Voice	*I"Voice	*I"Voice	*I"Voice
*I'Cb.	*	*I'V	*I'V	*I'V	*I'V
*clefF4	*	*clefF4	*clefGv2	*clefG2	*clefG2
*Trd0c0	*	*	*	*	*
*k[b-e-]	*	*k[b-e-]	*k[b-e-]	*k[b-e-]	*k[b-e-]
*M4/4	*	*M4/4	*M4/4	*M4/4	*M4/4
4G	.	4G	4B-	4d	4g
=2	=2	=2	=2	=2	=2
8cL	.	8cL	4c	4e-	4g
8B-J	.	8B-J	.	.	.
4A	nr5	4A	4c	8enL	4a
.	#6\	.	.	8f#XJ	.
8GL	.	8GL	4d	4g	4b-
8FnJ	.	8FnJ	.	.	.
4E-	6	4E-	4e-	4g	4cc
=3	=3	=3	=3	=3	=3
2.D;	#	2.D;	2.A;	2.f#X;	2.dd;
4C	6 #4| 2	4C	4A	4f#	4dd
=4	=4	=4	=4	=4	=4
4BB-	6	4BB-	4B-	4g	4dd
4AA	7	4AA	4c	8gL	4cc
.	#6\	.	.	8f#XJ	.
4GG	.	4GG	4d	4g	4b-
4C	6	4C	4e-	4a	4cc
=5	=5	=5	=5	=5	=5
2.D;	#	2.D;	2.d;	2.f#X;	2.a;
4D	.	4D	4d	4f#	4a
=6	=6	=6	=6	=6	=6
4G	.	4G	4d	4g	4b-
8FnL	7 5	8FnL	4e-	4a	4cc
8E-J	.	8E-J	.	.	.
8DL	6	8DL	4f	4b-	4dd
8CJ	.	8CJ	.	.	.
4BB-	.	4BB-	4f	4b-	4dd
=7	=7	=7	=7	=7	=7
4E-	6 5	4E-	4g	4b-	2cc
4F	8	4F	8fL	8aL	.
.	7	.	8e-J	8gJ	.
4F#X;	6	4F#X;	4d;	4a;	4dd;
4D	#	4D	4A	4f#X	4dd
=8	=8	=8	=8	=8	=8
!!linebreak:original
4G	.	4G	4B-	4d	4b-
4A	6	4A	8fnL	4c	4cc
.	.	.	8e-J	.	.
8B-L	.	8B-L	8dL	4f	4dd
8AJ	.	8AJ	8cJ	.	.
8GL	5	8GL	4B-	4g	4dd
8FJ	.	8FJ	.	.	.
=9	=9	=9	=9	=9	=9
4E-	6 5	4E-	4B-	4g	2cc
4F	.	4F	4A	8fL	.
.	.	.	.	8e-J	.
4BB-;	.	4BB-;	4F;	4d;	4b-;
4B-	.	4B-	4B-	4f	4dd
=10	=10	=10	=10	=10	=10
4A	6	4A	4c	4f	4ff
4B-	5	4B-	4d	8fL	4dd
.	6	.	.	8gJ	.
4F#X	6	4F#X	8dL	4a	4dd
.	5	.	8cJ	.	.
8GL	.	8GL	4B-	4g	4dd
8FnJ	.	8FnJ	.	.	.
=11	=11	=11	=11	=11	=11
4En	6 5	4En	8B-L	8gL	2cc
.	.	.	8A	8f	.
4C	7 n	4C	8B-	8g	.
.	.	.	8GJ	8enJ	.
4F;	.	4F;	4A;	4f;	4cc;
4F	.	4F	4A	8fL	4cc
.	.	.	.	8e-XJ	.
=12	=12	=12	=12	=12	=12
4BB-	.	4BB-	4B-	4d	4dd
8CL	6 n	8CL	4A	8enL	4cc
8DJ	7 #	8DJ	.	8f#XJ	.
4E-	.	4E-	8GL	4g	4b-
.	.	.	8B-J	.	.
8DL	7 4 -r2	8DL	4e-	4g	4cc
8CJ	.	8CJ	.	.	.
=13	=13	=13	=13	=13	=13
2D	5 4	2D	8d	4g	2a
.	.	.	16cLL	.	.
.	.	.	16B-JJ	.	.
.	#	.	4c	4f#X	.
4GG;	n	4GG;	4Bn;	4d;	4g;
=||	=||	=||	=||	=||	=||
*-	*-	*-	*-	*-	*-
!!!system-decoration: s1,s2,s3,s4,s5
